X: 1
T: The Premier Reel
C: Paddy O'Brien
M: 4/4
L: 1/8
R: reel
K: Gmaj
zE|DG~G2 DGBG|EA~A2 EAcA|BGBd ~g2fg|(3efg dB AGEG|
DG~G2 DGBG|EA~A2 EAcA|(3Bcd gd edBG|FGAF G2:|
|:Bc|d2^ce dGBd|gfgd efge|dB~B2 GBdB|A2GB AGEG|
BddB dega|bg~g2 agef|gfgd edBG|FGAF G2:|
|:Bc|dg~g2 egdB|GBdB BAAB|dg~g2 edBd|(3efg fa gfga|
bg~g2 egdB|c2AG FAce|dg~g2 edBG|FGAF G2:|
